assets/download.svg

<svg fill="none" height="40" viewBox="0 0 40 40" width="40" xmlns="http://www.w3.org/2000/svg"><path d="m40 20c0-11.0457-8.9543-20-20-20s-20 8.9543-20 20 8.9543 20 20 20 20-8.9543 20-20z" fill="#f55d3e"/><path d="m12.4633 24.0264c-.1707.3953-.0898.8535.2067 1.1679l6.1093 6.4688c.2022.2156.4852.3369.7817.3369s.5795-.1213.7816-.3369l6.1094-6.4688c.2965-.3144.3773-.7726.2066-1.1679s-.5615-.6514-.9882-.6514h-3.2344v-12.9375c0-.79512-.6424-1.4375-1.4375-1.4375h-2.875c-.7951 0-1.4375.64238-1.4375 1.4375v12.9375h-3.2344c-.4312 0-.8176.2561-.9883.6514z" fill="#fff"/></svg>

<svg width="40" height="40" viewBox="0 0 40 40" fill="none" xmlns="http://www.w3.org/2000/svg">
<path d="M40 20C40 8.9543 31.0457 0 20 0C8.9543 0 0 8.9543 0 20C0 31.0457 8.9543 40 20 40C31.0457 40 40 31.0457 40 20Z" fill="#F55D3E"/>
<path d="M12.4633 24.0264C12.2926 24.4217 12.3735 24.8799 12.67 25.1943L18.7793 31.6631C18.9815 31.8787 19.2645 32 19.561 32C19.8575 32 20.1405 31.8787 20.3426 31.6631L26.452 25.1943C26.7485 24.8799 26.8293 24.4217 26.6586 24.0264C26.4879 23.6311 26.0971 23.375 25.6704 23.375H22.436V10.4375C22.436 9.64238 21.7936 9 20.9985 9H18.1235C17.3284 9 16.686 9.64238 16.686 10.4375V23.375H13.4516C13.0204 23.375 12.634 23.6311 12.4633 24.0264Z" fill="white"/>
</svg>
